public/assets/gear-pink.svg

<svg width="238" height="238" viewBox="0 0 238 238" fill="none" xmlns="http://www.w3.org/2000/svg">
<path d="M118.556 81.5839C97.8495 81.5839 81.0491 98.3844 81.0491 119.105C81.0491 139.804 97.8495 156.634 118.556 156.634C139.261 156.634 155.943 139.804 155.943 119.105C155.943 98.3844 139.269 81.5839 118.556 81.5839ZM193.754 140.649L186.995 156.93L200.646 183.735L183.927 200.454L156.499 187.5L140.218 194.185L131.954 219.485L130.895 222.843H107.269L97.0417 194.281L80.76 187.567L53.9178 201.158L37.2063 184.454L50.1457 157.012L43.4389 140.745L14.8329 131.407V107.789L43.4092 97.5469L50.1161 81.2949L38.0956 57.5653L36.5097 54.4527L53.199 37.7634L80.6637 50.6954L96.9232 43.9737L105.179 18.6878L106.246 15.3381H129.872L140.106 43.9292L156.344 50.6509L183.223 37.0297L199.927 53.719L186.988 81.1393L193.672 97.4284L222.33 106.751V130.362L193.761 140.641L193.754 140.649Z" fill="#EB47BF"/>
</svg>

<svg width="238" height="238" fill="none" xmlns="http://www.w3.org/2000/svg"><path d="M118.556 81.584c-20.706 0-37.507 16.8-37.507 37.521 0 20.699 16.8 37.529 37.507 37.529 20.705 0 37.387-16.83 37.387-37.529 0-20.72-16.674-37.521-37.387-37.521Zm75.198 59.065-6.759 16.281 13.651 26.805-16.719 16.719-27.428-12.954-16.281 6.685-8.264 25.3-1.059 3.358h-23.626l-10.227-28.562-16.282-6.714-26.842 13.591-16.712-16.704 12.94-27.442-6.707-16.267-28.606-9.338v-23.618l28.576-10.242 6.707-16.252-12.02-23.73-1.586-3.112 16.689-16.69 27.465 12.932 16.26-6.721 8.255-25.286 1.067-3.35h23.626l10.234 28.591 16.238 6.722 26.879-13.621 16.704 16.689-12.939 27.42 6.684 16.29 28.658 9.322v23.611l-28.569 10.279-.007.008Z" fill="#EB47BF"/></svg>
